X: 491
T: Da xinchui
%%abc-version 2.0
%%abcx-abcm2ps-target-version 5.9.1 (29 Sep 2008)
%%abc-creator hum2abc beta
%%abcx-conversion-date 2013/10/02 07:52:30
%%abc-edited-by Helmut Schaffrath
%%humdrum-veritas 3381797681
%%humdrum-veritas-data 3024174511
%%continueall 1
%%barnumbers 0
L: 1/8
M: 2/4
K: G
Bd2e [I:setbarnb 1]| 
d2A2 | 
Bd2A | 
G E G A | 
Bd2B | 
A2d d | 
e d/ e/ c B/ A/ | 
GA2E | 
D4 |]  



